SVG_Azure_Grouped/Networking/Email Communication Service.svg

<?xml version="1.0" encoding="UTF-8" standalone="no"?>
<!-- Generated by Microsoft Visio, SVG Export Email Communication Service.svg Page-1 -->

<svg
   xmlns:dc="http://purl.org/dc/elements/1.1/"
   xmlns:cc="http://creativecommons.org/ns#"
   xmlns:rdf="http://www.w3.org/1999/02/22-rdf-syntax-ns#"
   xmlns:svg="http://www.w3.org/2000/svg"
   xmlns="http://www.w3.org/2000/svg"
   xmlns:xlink="http://www.w3.org/1999/xlink"
   xmlns:sodipodi="http://sodipodi.sourceforge.net/DTD/sodipodi-0.dtd"
   xmlns:inkscape="http://www.inkscape.org/namespaces/inkscape"
   width="0.8186667in"
   height="0.77948886in"
   viewBox="0 0 58.944261 56.12329"
   xml:space="preserve"
   class="st7"
   version="1.1"
   id="svg65"
   sodipodi:docname="Email Communication Service.svg"
   style="font-size:12px;overflow:visible;color-interpolation-filters:sRGB;fill:none;fill-rule:evenodd;stroke-linecap:square;stroke-miterlimit:3"
   inkscape:version="0.92.5 (2060ec1f9f, 2020-04-08)"><metadata
   id="metadata69"><rdf:RDF><cc:Work
       rdf:about=""><dc:format>image/svg+xml</dc:format><dc:type
         rdf:resource="http://purl.org/dc/dcmitype/StillImage" /></cc:Work></rdf:RDF></metadata><sodipodi:namedview
   pagecolor="#ffffff"
   bordercolor="#666666"
   borderopacity="1"
   objecttolerance="10"
   gridtolerance="10"
   guidetolerance="10"
   inkscape:pageopacity="0"
   inkscape:pageshadow="2"
   inkscape:window-width="640"
   inkscape:window-height="480"
   id="namedview67"
   showgrid="false"
   inkscape:zoom="1.4258234"
   inkscape:cx="39.294245"
   inkscape:cy="37.40624"
   inkscape:window-x="0"
   inkscape:window-y="0"
   inkscape:window-maximized="0"
   inkscape:current-layer="svg65" />
	<style
   type="text/css"
   id="style2">
	<![CDATA[
		.st1 {fill:url(#grad0-6);stroke:none;stroke-linecap:butt;stroke-width:34}
		.st2 {fill:#a67af4;stroke:none;stroke-linecap:butt;stroke-width:34}
		.st3 {fill:#773adc;stroke:none;stroke-linecap:butt;stroke-width:34}
		.st4 {fill:#552f99;stroke:none;stroke-linecap:butt;stroke-width:34}
		.st5 {fill:url(#grad0-16);stroke:none;stroke-linecap:butt;stroke-width:34}
		.st6 {fill:url(#grad0-20);stroke:none;stroke-linecap:butt;stroke-width:34}
		.st7 {fill:none;fill-rule:evenodd;font-size:12px;overflow:visible;stroke-linecap:square;stroke-miterlimit:3}
	]]>
	</style>

	<defs
   id="Patterns_And_Gradients">
		<linearGradient
   id="grad0-6"
   x1="0"
   y1="199.69"
   x2="17.876409"
   y2="199.69"
   gradientTransform="scale(1.7525891,0.57058439)"
   gradientUnits="userSpaceOnUse">
			<stop
   offset="0.16"
   stop-color="#50e6ff"
   stop-opacity="1"
   id="stop4" />
			<stop
   offset="1"
   stop-color="#32bedd"
   stop-opacity="1"
   id="stop6" />
		</linearGradient>
		<linearGradient
   id="grad0-16"
   x1="0"
   y1="198.39159"
   x2="17.94931"
   y2="198.39159"
   gradientTransform="scale(1.7426854,0.57382704)"
   gradientUnits="userSpaceOnUse">
			<stop
   offset="0.235"
   stop-color="#50e6ff"
   stop-opacity="1"
   id="stop9" />
			<stop
   offset="1"
   stop-color="#32bedd"
   stop-opacity="1"
   id="stop11" />
		</linearGradient>
		<linearGradient
   id="grad0-20"
   x1="0"
   y1="0"
   x2="1"
   y2="0"
   gradientTransform="rotate(-90,0.5,0.5)">
			<stop
   offset="0"
   stop-color="#32bedd"
   stop-opacity="1"
   id="stop14" />
			<stop
   offset="0.765"
   stop-color="#50e6ff"
   stop-opacity="1"
   id="stop16" />
		</linearGradient>
	<linearGradient
   inkscape:collect="always"
   xlink:href="#grad0-20"
   id="linearGradient4579"
   gradientTransform="scale(1.0121121,0.98803285)"
   x1="-0.00066499854"
   y1="80.658937"
   x2="44.983994"
   y2="80.658937"
   gradientUnits="userSpaceOnUse" /><linearGradient
   inkscape:collect="always"
   xlink:href="#grad0-20"
   id="linearGradient4581"
   gradientTransform="scale(1.0121295,0.98801582)"
   x1="-2.2170214"
   y1="73.473585"
   x2="49.955154"
   y2="73.473585"
   gradientUnits="userSpaceOnUse" /></defs>
	<g
   id="g63"
   transform="translate(-33.998187,-34.001028)">
		<title
   id="title20">Page-1</title>
		<g
   id="group18029-1"
   transform="translate(36.2421,-34.0157)">
			<title
   id="title22">Email Communication Service.18029</title>
			<g
   id="group18030-2">
				<title
   id="title24">Sheet.18030</title>
				<g
   id="shape18031-3"
   transform="translate(25.33,-9.92442)">
					<title
   id="title26">Sheet.18031</title>
					<path
   d="M 31.33,114.02 15.69,124.14 0,114.01 a 0.275579,0.269016 0 0 1 0.0531237,-0.0681 L 31.26,113.94 a 0.348624,0.340321 0 0 1 0.0664,0.081 z"
   class="st1"
   id="path28"
   inkscape:connector-curvature="0"
   style="fill:url(#grad0-6);stroke:none;stroke-width:34;stroke-linecap:butt" />
				</g>
				<g
   id="shape18032-7"
   transform="translate(25.3333,-0.220399)">
					<title
   id="title31">Sheet.18032</title>
					<path
   d="m 15.7,114.27 -0.02,0.02 -15.3,9.85 -0.01,-0.02 A 0.952906,0.930211 0 0 1 0.004775,123.40695 L 0,104.66 a 0.969507,0.946417 0 0 1 0.102927,-0.4408 z"
   class="st2"
   id="path33"
   inkscape:connector-curvature="0"
   style="fill:#a67af4;stroke:none;stroke-width:34;stroke-linecap:butt" />
				</g>
				<g
   id="shape18033-9"
   transform="translate(41.0414,-0.220399)">
					<title
   id="title36">Sheet.18033</title>
					<path
   d="m 15.65,104.66 v 18.76 a 0.996069,0.972346 0 0 1 -0.332023,0.7163 L 6.21,118.27 3.9,116.77 0,114.26 15.55,104.21 a 0.776934,0.75843 0 0 1 0.106247,0.45052 z"
   class="st3"
   id="path38"
   inkscape:connector-curvature="0"
   style="fill:#773adc;stroke:none;stroke-width:34;stroke-linecap:butt" />
				</g>
				<g
   id="shape18034-11"
   transform="translate(25.6986)">
					<title
   id="title41">Sheet.18034</title>
					<path
   d="m 30.67,123.92 h -0.02 a 1.03591,1.01124 0 0 1 -0.64,0.22 L 0.61,124.11 A 0.876541,0.855665 0 0 1 0.018999,123.90581 L 0,123.88 l 15.3,-9.83 0.02,0.02 3.92,2.5 2.3,1.5 z"
   class="st4"
   id="path43"
   inkscape:connector-curvature="0"
   style="fill:#552f99;stroke:none;stroke-width:34;stroke-linecap:butt" />
				</g>
				<g
   id="shape18035-13"
   transform="translate(25.3566,-20.0239)">
					<title
   id="title46">Sheet.18035</title>
					<path
   d="M 31.28,124.14 H 0 a 0.820097,0.800565 0 0 1 0.265618,-0.27226 L 15.11,114.01 a 0.976147,0.952899 0 0 1 1.10564,0 L 31.02,123.87 a 0.803495,0.784359 0 0 1 0.258978,0.27226 z"
   class="st5"
   id="path48"
   inkscape:connector-curvature="0"
   style="fill:url(#grad0-16);stroke:none;stroke-width:34;stroke-linecap:butt" />
				</g>
				<g
   id="shape18036-17"
   transform="translate(1.38896,-8.03158)">
					<title
   id="title51">Sheet.18036</title>
					<path
   d="m 31.37,90.3 a 55.4246,54.1046 0 0 1 1.53,14.33 l -9.08,6.04 a 2.77571,2.70961 -180 0 0 -0.94,1.07 2.68275,2.61885 -180 0 0 -0.19,0.51 47.9043,46.7634 -180 0 0 -9.89,0.94 53.6217,52.3446 0 0 1 0.69,-22.96 47.7416,46.6046 -180 0 0 17.88,0.07 z M 12.14,89.96 A 19.4233,18.9608 0 0 1 5.62,87.31 22.7203,22.1792 -180 0 0 5.28,116.13 v -0.02 a 18.5933,18.1505 0 0 1 6.14,-2.57 55.74,54.4125 0 0 1 0.72,-23.58 z m 20.58,0.03 a 55.7799,54.4514 0 0 1 1.61,13.7 l 4.03,-2.68 a 2.37396,2.31743 0 0 1 2.66,0 l 4.41,2.94 A 22.7635,22.2214 -180 0 0 39.88,87.23 24.314,23.735 0 0 1 32.71,89.99 Z M 13.88,88.97 a 47.632,46.4976 -180 0 0 17.13,0.04 23.806,23.2391 -180 0 0 -4.84,-9.07 22.727,22.1857 -180 0 0 -7.6,0.14 h 0.07 a 25.6056,24.9958 -180 0 0 -2.1,2.85 23.7894,23.2229 -180 0 0 -2.66,6.04 z m 18.43,-0.23 a 22.8897,22.3445 -180 0 0 6.64,-2.47 22.7834,22.2408 -180 0 0 -10.68,-5.94 28.0327,27.3651 0 0 1 4.02,8.41 z M 10.3,83.31 a 25.008,24.4124 -180 0 0 -3.79,3 18.3343,17.8977 -180 0 0 5.98,2.36 28.3614,27.6859 0 0 1 3.98,-8.14 22.7668,22.2246 -180 0 0 -6.14,2.81 z m 5.72,39.87 a 22.2455,21.7157 0 0 1 -4.23,-8.37 17.3416,16.9286 -180 0 0 -5.6,2.33 22.7834,22.2408 -180 0 0 9.83,6.02 z m 2.46,0.53 a 21.11,20.6073 -180 0 0 4.13,0.43 v -10.55 a 46.8684,45.7521 -180 0 0 -9.52,0.89 18.6331,18.1894 -180 0 0 5.26,9.09 z"
   class="st6"
   id="path53"
   inkscape:connector-curvature="0"
   style="fill:url(#linearGradient4579);stroke:none;stroke-width:34;stroke-linecap:butt" />
				</g>
				<g
   id="shape18037-21"
   transform="translate(0,-4.57651)">
					<title
   id="title56">Sheet.18037</title>
					<path
   d="m 24,121.92 c -0.28,0 -0.57,0 -0.85,-0.03 h -0.51 l -0.63,-0.06 c -0.26,-0.01 -0.51,-0.07 -0.77,-0.07 l -0.76,-0.1 c -0.25,-0.04 -0.57,-0.1 -0.75,-0.13 a 9.96069,9.72346 0 0 1 -0.55,-0.1 l -0.25,-0.05 -0.51,-0.12 A 23.0723,22.5228 0 0 1 3.52,110.73 22.2821,21.7514 0 0 1 0,98.09 V 97.91 A 24.0949,23.5211 0 0 1 9.35,79.76 l 0.3,-0.22 0.11,-0.02 a 24.8386,24.2471 0 0 1 4.22,-2.46 l 0.48,-0.21 a 24.1945,23.6183 0 0 1 9.65,-1.99 h 1.83 l 1.1,0.1 0.82,0.11 c 0.61,0.1 1.23,0.21 1.85,0.35 0.17,0.05 0.38,0.09 0.58,0.15 l 0.62,0.17 0.21,0.06 a 23.2416,22.6881 0 0 1 2.28,0.79 24.1646,23.5891 0 0 1 14.91,21.97 22.7502,22.2084 0 0 1 -0.14,2.83 l 2.01,1.34 A 26.4025,25.7737 -180 1 0 24,124.14 Z"
   class="st6"
   id="path58"
   inkscape:connector-curvature="0"
   style="fill:url(#linearGradient4581);stroke:none;stroke-width:34;stroke-linecap:butt" />
				</g>
			</g>
		</g>
	</g>
</svg>

<?xml version="1.0" encoding="UTF-8" standalone="no"?>
<!DOCTYPE svg PUBLIC "-//W3C//DTD SVG 1.1//EN" "http://www.w3.org/Graphics/SVG/1.1/DTD/svg11.dtd">
<!-- Generated by Microsoft Visio, SVG Export Email Communication Service.svg Page-1 -->
<svg xmlns="http://www.w3.org/2000/svg" xmlns:xlink="http://www.w3.org/1999/xlink" xmlns:ev="http://www.w3.org/2001/xml-events"
		width="1.76302in" height="1.72415in" viewBox="0 0 126.938 124.139" xml:space="preserve" color-interpolation-filters="sRGB"
		class="st7">
	<style type="text/css">
	<![CDATA[
		.st1 {fill:url(#grad0-6);stroke:none;stroke-linecap:butt;stroke-width:34}
		.st2 {fill:#a67af4;stroke:none;stroke-linecap:butt;stroke-width:34}
		.st3 {fill:#773adc;stroke:none;stroke-linecap:butt;stroke-width:34}
		.st4 {fill:#552f99;stroke:none;stroke-linecap:butt;stroke-width:34}
		.st5 {fill:url(#grad0-16);stroke:none;stroke-linecap:butt;stroke-width:34}
		.st6 {fill:url(#grad0-20);stroke:none;stroke-linecap:butt;stroke-width:34}
		.st7 {fill:none;fill-rule:evenodd;font-size:12px;overflow:visible;stroke-linecap:square;stroke-miterlimit:3}
	]]>
	</style>

	<defs id="Patterns_And_Gradients">
		<linearGradient id="grad0-6" x1="0" y1="0" x2="1" y2="0" gradientTransform="rotate(90 0.5 0.5)">
			<stop offset="0.16" stop-color="#50e6ff" stop-opacity="1"/>
			<stop offset="1" stop-color="#32bedd" stop-opacity="1"/>
		</linearGradient>
		<linearGradient id="grad0-16" x1="0" y1="0" x2="1" y2="0" gradientTransform="rotate(90 0.5 0.5)">
			<stop offset="0.235" stop-color="#50e6ff" stop-opacity="1"/>
			<stop offset="1" stop-color="#32bedd" stop-opacity="1"/>
		</linearGradient>
		<linearGradient id="grad0-20" x1="0" y1="0" x2="1" y2="0" gradientTransform="rotate(-90 0.5 0.5)">
			<stop offset="0" stop-color="#32bedd" stop-opacity="1"/>
			<stop offset="0.765" stop-color="#50e6ff" stop-opacity="1"/>
		</linearGradient>
	</defs>
	<g>
		<title>Page-1</title>
		<g id="group17615-1" transform="translate(36.2421,-34.0157)">
			<title>Email Communication Service.17615</title>
			<g id="group17616-2">
				<title>Sheet.17616</title>
				<g id="shape17617-3" transform="translate(25.33,-9.92442)">
					<title>Sheet.17617</title>
					<path d="M31.33 114.02 L15.69 124.14 L0 114.01 a0.275579 0.269016 0 0 1 0.0531237 -0.0680642 L31.26 113.94 a0.348624
								 0.340321 0 0 1 0.0664046 0.0810289 Z" class="st1"/>
				</g>
				<g id="shape17618-7" transform="translate(25.3333,-0.220399)">
					<title>Sheet.17618</title>
					<path d="M15.7 114.27 L15.68 114.29 L0.38 124.14 L0.37 124.12 a0.952906 0.930211 0 0 1 -0.365225 -0.713054 L0
								 104.66 a0.969507 0.946417 0 0 1 0.102927 -0.440797 L15.7 114.27 Z" class="st2"/>
				</g>
				<g id="shape17619-9" transform="translate(41.0414,-0.220399)">
					<title>Sheet.17619</title>
					<path d="M15.65 104.66 L15.65 123.42 a0.996069 0.972346 0 0 1 -0.332023 0.716295 L6.21 118.27 L3.9 116.77 L0
								 114.26 L15.55 104.21 a0.776934 0.75843 0 0 1 0.106247 0.450521 Z" class="st3"/>
				</g>
				<g id="shape17620-11" transform="translate(25.6986,5.68434E-14)">
					<title>Sheet.17620</title>
					<path d="M30.67 123.92 L30.65 123.92 A1.03591 1.01124 0 0 1 30.01 124.14 L0.61 124.11 a0.876541 0.855665 0 0
								 1 -0.591001 -0.204193 L0 123.88 L15.3 114.05 L15.32 114.07 L19.24 116.57 L21.54 118.07 L30.67 123.92
								 Z" class="st4"/>
				</g>
				<g id="shape17621-13" transform="translate(25.3566,-20.0239)">
					<title>Sheet.17621</title>
					<path d="M31.28 124.14 L0 124.14 a0.820097 0.800565 0 0 1 0.265618 -0.272257 L15.11 114.01 a0.976147 0.952899
								 0 0 1 1.10564 -1.42109E-14 L31.02 123.87 a0.803495 0.784359 0 0 1 0.258978 0.272257 Z" class="st5"/>
				</g>
				<g id="shape17622-17" transform="translate(1.38896,-8.03158)">
					<title>Sheet.17622</title>
					<path d="M31.37 90.3 A55.4246 54.1046 0 0 1 32.9 104.63 L23.82 110.67 A2.77571 2.70961 -180 0 0 22.88 111.74
								 A2.68275 2.61885 -180 0 0 22.69 112.25 A47.9043 46.7634 -180 0 0 12.8 113.19 A53.6217 52.3446 0
								 0 1 13.49 90.23 A47.7416 46.6046 -180 0 0 31.37 90.3 ZM12.14 89.96 A19.4233 18.9608 0 0 1 5.62 87.31
								 A22.7203 22.1792 -180 0 0 5.28 116.13 L5.28 116.11 A18.5933 18.1505 0 0 1 11.42 113.54 A55.74 54.4125
								 0 0 1 12.14 89.96 ZM32.72 89.99 A55.7799 54.4514 0 0 1 34.33 103.69 L38.36 101.01 A2.37396 2.31743
								 0 0 1 41.02 101.01 L45.43 103.95 A22.7635 22.2214 -180 0 0 39.88 87.23 A24.314 23.735 0 0 1 32.71
								 89.99 L32.72 89.99 ZM13.88 88.97 A47.632 46.4976 -180 0 0 31.01 89.01 A23.806 23.2391 -180 0 0 26.17
								 79.94 A22.727 22.1857 -180 0 0 18.57 80.08 L18.64 80.08 A25.6056 24.9958 -180 0 0 16.54 82.93 A23.7894
								 23.2229 -180 0 0 13.88 88.97 ZM32.31 88.74 A22.8897 22.3445 -180 0 0 38.95 86.27 A22.7834 22.2408
								 -180 0 0 28.27 80.33 A28.0327 27.3651 0 0 1 32.29 88.74 L32.31 88.74 ZM10.3 83.31 A25.008 24.4124
								 -180 0 0 6.51 86.31 A18.3343 17.8977 -180 0 0 12.49 88.67 A28.3614 27.6859 0 0 1 16.47 80.53 A22.7668
								 22.2246 -180 0 0 10.33 83.34 L10.3 83.31 ZM16.02 123.18 A22.2455 21.7157 0 0 1 11.79 114.81 A17.3416
								 16.9286 -180 0 0 6.19 117.14 A22.7834 22.2408 -180 0 0 16.02 123.16 L16.02 123.18 ZM18.48 123.71
								 A21.11 20.6073 -180 0 0 22.61 124.14 L22.61 113.59 A46.8684 45.7521 -180 0 0 13.09 114.48 A18.6331
								 18.1894 -180 0 0 18.35 123.57 L18.48 123.71 Z" class="st6"/>
				</g>
				<g id="shape17623-21" transform="translate(2.71783E-13,-4.57651)">
					<title>Sheet.17623</title>
					<path d="M24 121.92 C23.72 121.92 23.43 121.92 23.15 121.89 L22.64 121.89 L22.01 121.83 C21.75 121.82 21.5 121.76
								 21.24 121.76 L20.48 121.66 C20.23 121.62 19.91 121.56 19.73 121.53 A9.96069 9.72346 0 0 1 19.18
								 121.43 L18.93 121.38 L18.42 121.26 A23.0723 22.5228 0 0 1 3.52 110.73 A22.2821 21.7514 0 0 1 -0
								 98.09 L0 97.91 A24.0949 23.5211 0 0 1 9.35 79.76 L9.65 79.54 L9.76 79.52 A24.8386 24.2471 0 0 1
								 13.98 77.06 L14.46 76.85 A24.1945 23.6183 0 0 1 24.11 74.86 L25.94 74.86 L27.04 74.96 L27.86 75.07
								 C28.47 75.17 29.09 75.28 29.71 75.42 C29.88 75.47 30.09 75.51 30.29 75.57 L30.91 75.74 L31.12 75.8
								 A23.2416 22.6881 0 0 1 33.4 76.59 A24.1646 23.5891 0 0 1 48.31 98.56 A22.7502 22.2084 0 0 1 48.17
								 101.39 L50.18 102.73 A26.4025 25.7737 -180 1 0 24 124.14 L24 121.92 Z" class="st6"/>
				</g>
			</g>
		</g>
	</g>
</svg>
